svgs/sharp-solid/wind-warning.svg

<svg xmlns="http://www.w3.org/2000/svg" viewBox="0 0 640 512"><!--! Font Awesome Pro 6.6.0 by @fontawesome - https://fontawesome.com License - https://fontawesome.com/license (Commercial License) Copyright 2024 Fonticons, Inc. --><path d="M418 368c-38.7 67-111.1 112-194 112C100.3 480 0 379.7 0 256S100.3 32 224 32c118.3 0 215.2 91.8 223.4 208L384 240l-64 0 0 128 64 0 34 0zM248 152l0-24-48 0 0 24 0 112 0 24 48 0 0-24 0-112zM200 320l0 48 48 0 0-48-48 0zM472 464l0-64 32 0 32 0c17.7 0 32-14.3 32-32s-14.3-32-32-32l-152 0-32 0 0-64 32 0 152 0c53 0 96 43 96 96s-43 96-96 96l-32 0-32 0zm72-224l-64.5 0c-1.4-22.2-5.6-43.7-12.3-64l76.7 0c17.7 0 32-14.3 32-32s-14.3-32-32-32l-32 0-32 0 0-64 32 0 32 0c53 0 96 43 96 96s-43 96-96 96z"/></svg>

<svg xmlns="http://www.w3.org/2000/svg" viewBox="0 0 640 512"><!--! Font Awesome Pro 6.5.2 by @fontawesome - https://fontawesome.com License - https://fontawesome.com/license (Commercial License) Copyright 2024 Fonticons, Inc. --><path d="M418 368c-38.7 67-111.1 112-194 112C100.3 480 0 379.7 0 256S100.3 32 224 32c118.3 0 215.2 91.8 223.4 208H384 320V368h64 34zM248 152V128H200v24V264v24h48V264 152zM200 320v48h48V320H200zM472 464V400h32 32c17.7 0 32-14.3 32-32s-14.3-32-32-32H384 352V272h32H536c53 0 96 43 96 96s-43 96-96 96H504 472zm72-224H479.5c-1.4-22.2-5.6-43.7-12.3-64H544c17.7 0 32-14.3 32-32s-14.3-32-32-32H512 480V48h32 32c53 0 96 43 96 96s-43 96-96 96z"/></svg>
